apps/web/src/images/integrations/logo-jumpcloud-badge-color.svg

<svg width="600" height="600" fill="none" xmlns="http://www.w3.org/2000/svg"><path d="M81.081 446.322C36.122 445.244 0 408.378 0 363.092c0-45.969 37.215-83.231 83.108-83.231a82.864 82.864 0 0 1 30.168 5.654c13.049-27.358 40.921-46.254 73.21-46.254 2.012 0 3.991.071 5.955.214C201.8 190.778 244.589 154 295.946 154c39.955 0 74.715 22.259 92.594 55.064 9.533-4.084 20.033-6.344 31.055-6.344 43.66 0 79.054 35.446 79.054 79.171a83.331 83.331 0 0 1 18.243-2.03c45.893 0 83.108 37.262 83.108 83.231 0 45.286-36.122 82.152-81.081 83.23h-20.175c-9.803-29.491-36.978-53.573-72.546-65.317 12.21-12.458 19.748-29.531 19.748-48.364 0-38.118-30.849-69.02-68.919-69.02-38.07 0-68.919 30.902-68.919 69.02 0 18.833 7.538 35.906 19.748 48.364-11.83 3.901-22.757 9.159-32.417 15.534-6.619 4.369-12.653 9.262-17.974 14.607-8.425-7.034-18.116-12.862-28.695-17.184 9.169-10.388 14.744-24.035 14.744-38.991 0-32.511-26.32-58.87-58.784-58.87s-58.784 26.359-58.784 58.87c0 14.956 5.574 28.603 14.743 38.991-25.163 10.277-45.196 29.086-55.584 52.36H81.081Z" fill="#002B49"/></svg>

<svg width="600" height="600" viewBox="0 0 600 600" fill="none" xmlns="http://www.w3.org/2000/svg">
<path d="M81.0811 446.322C36.1223 445.244 0 408.378 0 363.092C0 317.123 37.215 279.861 83.1081 279.861C93.75 279.861 103.917 281.867 113.276 285.515C126.325 258.157 154.197 239.261 186.486 239.261C188.498 239.261 190.477 239.332 192.441 239.475C201.8 190.778 244.589 154 295.946 154C335.901 154 370.661 176.259 388.54 209.064C398.073 204.98 408.573 202.72 419.595 202.72C463.255 202.72 498.649 238.166 498.649 281.891C504.524 280.575 510.621 279.861 516.892 279.861C562.785 279.861 600 317.123 600 363.092C600 408.378 563.878 445.244 518.919 446.322H498.744C488.941 416.831 461.766 392.749 426.198 381.005C438.408 368.547 445.946 351.474 445.946 332.641C445.946 294.523 415.097 263.621 377.027 263.621C338.957 263.621 308.108 294.523 308.108 332.641C308.108 351.474 315.646 368.547 327.856 381.005C316.026 384.906 305.099 390.164 295.439 396.539C288.82 400.908 282.786 405.801 277.465 411.146C269.04 404.112 259.349 398.284 248.77 393.962C257.939 383.574 263.514 369.927 263.514 354.971C263.514 322.46 237.194 296.101 204.73 296.101C172.266 296.101 145.946 322.46 145.946 354.971C145.946 369.927 151.52 383.574 160.689 393.962C135.526 404.239 115.493 423.048 105.105 446.322H81.0811Z" fill="#002B49"/>
</svg>
